images/arrow-right.svg

<svg height="18" viewBox="0 0 10 18" width="10" xmlns="http://www.w3.org/2000/svg"><path d="m1347.01777 123 6.61611-6.805148c.48816-.502103.48816-1.316172 0-1.818275-.48815-.502103-1.27961-.502103-1.76776 0l-7.5 7.714286c-.48816.502102-.48816 1.316172 0 1.818274l7.5 7.714286c.48815.502103 1.27961.502103 1.76776 0 .48816-.502103.48816-1.316172 0-1.818275z" fill="#731982" transform="matrix(-1 0 0 -1 1354 132)"/></svg>

<?xml version="1.0" encoding="UTF-8"?>
<svg width="10px" height="18px" viewBox="0 0 10 18" version="1.1" xmlns="http://www.w3.org/2000/svg" xmlns:xlink="http://www.w3.org/1999/xlink">
    <!-- Generator: Sketch 48.2 (47327) - http://www.bohemiancoding.com/sketch -->
    <title>Shape</title>
    <desc>Created with Sketch.</desc>
    <defs></defs>
    <g id="Desktop-HD-Copy-25" stroke="none" stroke-width="1" fill="none" fill-rule="evenodd" transform="translate(-1385.000000, -4113.000000)">
        <g id="Group-23" transform="translate(41.000000, 3999.000000)" fill="#731982" fill-rule="nonzero">
            <path d="M1347.01777,123 L1353.63388,116.194852 C1354.12204,115.692749 1354.12204,114.87868 1353.63388,114.376577 C1353.14573,113.874474 1352.35427,113.874474 1351.86612,114.376577 L1344.36612,122.090863 C1343.87796,122.592965 1343.87796,123.407035 1344.36612,123.909137 L1351.86612,131.623423 C1352.35427,132.125526 1353.14573,132.125526 1353.63388,131.623423 C1354.12204,131.12132 1354.12204,130.307251 1353.63388,129.805148 L1347.01777,123 Z" id="Shape" transform="translate(1349.000000, 123.000000) rotate(-180.000000) translate(-1349.000000, -123.000000) "></path>
        </g>
    </g>
</svg>
